web/workspace/public/assets/icons/white/library.svg

<svg height="30" viewBox="0 0 30 30" width="30" xmlns="http://www.w3.org/2000/svg"><path d="m26 14h4l-15-14-15 14h4v10h-2v6h26v-6h-2zm-2 10h-3v-10h3zm-10-10v10h-3v-10zm2 0h3v10h-3zm-1-11.265 9.926 9.265h-19.852zm-9 11.265h3v10h-3zm20 14h-22v-2h22z" fill="#fff"/></svg>

<svg xmlns="http://www.w3.org/2000/svg" width="30" height="30" viewBox="0 0 30 30"><path d="M26 14h4L15 0 0 14h4v10H2v6h26v-6h-2V14zm-2 10h-3V14h3v10zM14 14v10h-3V14h3zm2 0h3v10h-3V14zM15 2.735L24.926 12H5.074L15 2.735zM6 14h3v10H6V14zm20 14H4v-2h22v2z" fill="#fff"/></svg>
